images_elementary_svg/cmd/sc_dataprovider.svg

<svg height="16" width="16" xmlns="http://www.w3.org/2000/svg" xmlns:xlink="http://www.w3.org/1999/xlink"><linearGradient id="a" gradientTransform="matrix(.2538 0 0 .30502 19.13 -.685)" gradientUnits="userSpaceOnUse" x1="-51.786" x2="-51.786" y1="50.786" y2="2.906"><stop offset="0" stop-opacity=".34"/><stop offset="1" stop-opacity=".247"/></linearGradient><linearGradient id="b" gradientTransform="matrix(.24324 0 0 .35135 2.162 -.432)" gradientUnits="userSpaceOnUse" x1="24" x2="24" y1="6.923" y2="41.077"><stop offset="0" stop-color="#fff"/><stop offset="0" stop-color="#fff" stop-opacity=".235"/><stop offset="1" stop-color="#fff" stop-opacity=".157"/><stop offset="1" stop-color="#fff" stop-opacity=".392"/></linearGradient><linearGradient id="c" gradientTransform="matrix(.2857 0 0 .3042 1.143 .233)" gradientUnits="userSpaceOnUse" x1="25.132" x2="25.132" y1=".985" y2="47.013"><stop offset="0" stop-color="#f4f4f4"/><stop offset="1" stop-color="#dbdbdb"/></linearGradient><linearGradient id="d" gradientTransform="matrix(.59436 0 0 .5999 -19.265 -.033)" gradientUnits="userSpaceOnUse" x1="25.132" x2="25.132" y1="15.5" y2="48.396"><stop offset="0" stop-color="#fafafa"/><stop offset="1" stop-color="#e2e1de"/></linearGradient><linearGradient id="e" gradientTransform="matrix(.94103 0 0 1.027 .46 -.56)" gradientUnits="userSpaceOnUse" x1="7" x2="7" y1="-4" y2="17"><stop offset="0" stop-color="#cdf87e"/><stop offset=".262" stop-color="#a2e34f"/><stop offset=".661" stop-color="#68b723"/><stop offset="1" stop-color="#1d7e0d"/></linearGradient><linearGradient id="f" gradientTransform="matrix(.98704 0 0 .88413 .093 .65)" gradientUnits="userSpaceOnUse" x1="7" x2="7" y1="2" y2="9"><stop offset="0" stop-color="#fff"/><stop offset=".5" stop-color="#fff" stop-opacity=".235"/><stop offset=".951" stop-color="#fff" stop-opacity=".157"/><stop offset="1" stop-color="#fff" stop-opacity=".392"/></linearGradient><path d="m3 1h10v14h-10z" fill="url(#c)"/><path d="m12.5 14.5h-9v-13h9z" fill="none" stroke="url(#b)" stroke-linecap="round"/><path d="m2.5.5h11v15h-11z" fill="none" stroke="url(#a)" stroke-linejoin="round"/><g transform="translate(0 1.998)"><rect fill="url(#d)" height="10" rx=".424" ry=".491" width="9" x="6" y="3"/><path d="m5.502 2.002c-.276 0-.5.224-.5.5v11c0 .276.224.5.5.5l9.998-.002c.276 0 .5-.224.5-.5v-11c0-.276-.224-.5-.5-.5zm.498.998 9.002-.002v10.004l-9.002.002zm4 0v2l-3.998.002v1l3.998-.002v3l-3.998.002v1l3.998-.002v3h1v-3h4v-1h-4v-3h4v-1h-4v-2z" fill="#030303" opacity=".32"/><path d="m5.502 2.002c-.276 0-.5.224-.5.5v3.5h.998v-3.002l9.002-.002v3.002h.998v-3.5c0-.276-.224-.5-.5-.5zm-.502.998v2l1.002.002v1l-1.002-.002h10v-1h-4v-2h-1v2h-4v-2z" fill="#126400" opacity=".4"/><path d="m5.503 2.523 10.015-.002v3.082l-10.015.002z" fill="url(#e)"/><path d="m5.503 2.523v3.08l.51-.007-.01-2.594 8.997-.002v2.602h.518v-3.08z" fill="url(#f)"/><path d="m5 2.494h1v3.074h-1zm5 0h1v3.103h-1z" fill="#126400" opacity=".4"/></g></svg>

<svg xmlns="http://www.w3.org/2000/svg" xmlns:xlink="http://www.w3.org/1999/xlink" height="16" width="16"><defs><linearGradient gradientTransform="matrix(.2538 0 0 .30502 19.13 -.685)" gradientUnits="userSpaceOnUse" xlink:href="#a" id="h" y2="2.906" x2="-51.786" y1="50.786" x1="-51.786"/><linearGradient id="a"><stop offset="0" stop-opacity=".34"/><stop offset="1" stop-opacity=".247"/></linearGradient><linearGradient gradientTransform="matrix(.24324 0 0 .35135 2.162 -.432)" gradientUnits="userSpaceOnUse" xlink:href="#b" id="g" y2="41.077" x2="24" y1="6.923" x1="24"/><linearGradient id="b"><stop offset="0" stop-color="#fff"/><stop offset="0" stop-color="#fff" stop-opacity=".235"/><stop offset="1" stop-color="#fff" stop-opacity=".157"/><stop offset="1" stop-color="#fff" stop-opacity=".392"/></linearGradient><linearGradient id="c"><stop offset="0" stop-color="#f4f4f4"/><stop offset="1" stop-color="#dbdbdb"/></linearGradient><linearGradient gradientTransform="matrix(.2857 0 0 .3042 1.143 .233)" gradientUnits="userSpaceOnUse" xlink:href="#c" id="f" y2="47.013" x2="25.132" y1=".985" x1="25.132"/><linearGradient id="i" gradientTransform="matrix(.59436 0 0 .5999 -19.265 -.033)" gradientUnits="userSpaceOnUse" x1="25.132" x2="25.132" y1="15.5" y2="48.396"><stop offset="0" stop-color="#fafafa"/><stop offset="1" stop-color="#e2e1de"/></linearGradient><linearGradient xlink:href="#d" id="j" x1="7" y1="-4" x2="7" y2="17" gradientUnits="userSpaceOnUse" gradientTransform="matrix(.94103 0 0 1.027 .46 -.56)"/><linearGradient gradientTransform="matrix(1.38317 0 0 1.41442 -36.243 -3.873)" id="d" gradientUnits="userSpaceOnUse" x1="8.295" x2="8.295" y1="-4.284" y2="16.85"><stop offset="0" stop-color="#cdf87e"/><stop offset=".262" stop-color="#a2e34f"/><stop offset=".661" stop-color="#68b723"/><stop offset="1" stop-color="#1d7e0d"/></linearGradient><linearGradient xlink:href="#e" id="k" x1="7" y1="2" x2="7" y2="9" gradientUnits="userSpaceOnUse" gradientTransform="matrix(.98704 0 0 .88413 .093 .65)"/><linearGradient id="e"><stop offset="0" stop-color="#fff"/><stop offset=".5" stop-color="#fff" stop-opacity=".235"/><stop offset=".951" stop-color="#fff" stop-opacity=".157"/><stop offset="1" stop-color="#fff" stop-opacity=".392"/></linearGradient></defs><path d="M3 1h10v14H3V1z" fill="url(#f)"/><path d="M12.5 14.5h-9v-13h9z" fill="none" stroke="url(#g)" stroke-linecap="round"/><path d="M2.5.5h11v15h-11V.5z" fill="none" stroke="url(#h)" stroke-linejoin="round"/><g transform="translate(0 1.998)"><rect height="10" rx=".424" ry=".491" width="9" x="6" y="3" fill="url(#i)"/><path d="M5.502 2.002c-.276 0-.5.224-.5.5v11c0 .276.224.5.5.5L15.5 14c.276 0 .5-.224.5-.5v-11c0-.276-.224-.5-.5-.5zM6 3l9.002-.002v10.004L6 13.004zm4 0v2l-3.998.002v1L10 6v3l-3.998.002v1L10 10v3h1v-3h4V9h-4V6h4V5h-4V3z" opacity=".32" fill="#030303"/><path d="M5.502 2.002c-.276 0-.5.224-.5.5v3.5H6V3l9.002-.002V6H16V2.5c0-.276-.224-.5-.5-.5zM5 3v2l1.002.002v1L5 6h10V5h-4V3h-1v2H6V3z" opacity=".4" fill="#126400"/><path d="M5.503 2.523l10.015-.002v3.082l-10.015.002z" fill="url(#j)"/><path d="M5.503 2.523v3.08l.51-.007-.01-2.594L15 3v2.602h.518v-3.08z" fill="url(#k)"/><path opacity=".4" fill="#126400" d="M5 2.494h1v3.074H5zM10 2.494h1v3.103h-1z"/></g></svg>
